X: 4182
T: MOLLY DARLING
%R: reel
B: James Kerr "Merry Melodies" v.4 p.21 #182
Z: 2016 John Chambers <jc:trillian.mit.edu>
M: C|
L: 1/8
K: A
|:\
e2cA e2cA | d=cBA =GABG |\
e2cA e2cA | (ea)ag a2gf ::\
ecac ecBA |
dB=gB dBA=G |\
[1 ecac ecBA | (ea)ag a2gf :|\
[2 ABcd eaga | edcB A2a2 |]

%%sep 1 1 500
%%sep 1 1 500

